packages/symbols/svgs/outline/envelope-outline.svg

<svg width="24" height="24" viewBox="0 0 24 24" fill="none" xmlns="http://www.w3.org/2000/svg">
<g clip-path="url(#clip0_1150_5537)">
<path fill-rule="evenodd" clip-rule="evenodd" d="M1 12C1.55228 12 2 12.4477 2 13V19C2 19.2652 2.10536 19.5196 2.29289 19.7071C2.48043 19.8946 2.73478 20 3 20H21C21.2652 20 21.5196 19.8946 21.7071 19.7071C21.8946 19.5196 22 19.2652 22 19V13C22 12.4477 22.4477 12 23 12C23.5523 12 24 12.4477 24 13V19C24 19.7957 23.6839 20.5587 23.1213 21.1213C22.5587 21.6839 21.7957 22 21 22H3C2.20435 22 1.44129 21.6839 0.87868 21.1213C0.316071 20.5587 0 19.7956 0 19V13C0 12.4477 0.447715 12 1 12Z" fill="black"/>
<path fill-rule="evenodd" clip-rule="evenodd" d="M0.87868 2.87868C1.44129 2.31607 2.20435 2 3 2H21C21.7957 2 22.5587 2.31607 23.1213 2.87868C23.6839 3.44129 24 4.20435 24 5V8C24 8.36594 23.8001 8.70266 23.4789 8.8779L12.4789 14.8779C12.1804 15.0407 11.8196 15.0407 11.5211 14.8779L0.521148 8.8779C0.199887 8.70266 0 8.36594 0 8V5C0 4.20435 0.316071 3.44129 0.87868 2.87868ZM3 4C2.73478 4 2.48043 4.10536 2.29289 4.29289C2.10536 4.48043 2 4.73478 2 5V7.40637L12 12.8609L22 7.40637V5C22 4.73478 21.8946 4.48043 21.7071 4.29289C21.5196 4.10536 21.2652 4 21 4H3Z" fill="black"/>
</g>
<defs>
<clipPath id="clip0_1150_5537">
<rect width="24" height="24" fill="white"/>
</clipPath>
</defs>
</svg>

<svg width="24" height="24" viewBox="0 0 24 24" xmlns="http://www.w3.org/2000/svg"><g clip-path="url(#a)" fill-rule="evenodd" clip-rule="evenodd"><path d="M1 12a1 1 0 0 1 1 1v6a1 1 0 0 0 1 1h18a1 1 0 0 0 1-1v-6a1 1 0 1 1 2 0v6a3 3 0 0 1-3 3H3a3 3 0 0 1-3-3v-6a1 1 0 0 1 1-1Z"/><path d="M.879 2.879A3 3 0 0 1 3 2h18a3 3 0 0 1 3 3v3a1 1 0 0 1-.521.878l-11 6a1 1 0 0 1-.958 0l-11-6A1 1 0 0 1 0 8V5a3 3 0 0 1 .879-2.121ZM3 4a1 1 0 0 0-1 1v2.406l10 5.455 10-5.455V5a1 1 0 0 0-1-1H3Z"/></g><defs><clipPath id="a"><path fill="#fff" d="M0 0h24v24H0z"/></clipPath></defs></svg>
